X: 11508
T: Eddie Kelly's
R: jig
M: 6/8
K: Dmixolydian
AFD {B}~=c3|Ade fge|d=cA G{A}GG|AdB =cAG|
AFD {B}~=c3|Ade fge|d=cA GEA|D/D/DD DFA:|
|:daf g2 a|ged {/B} =cAG|daf ged|cde g{a}gg|
afd fga|fed =cAG|AdB {/B} =cAG|1 E{/F}ED DFA:|2 E{/F}ED DA,=C||

